X: 22983
T: Lasses Of Ballintra, The
R: reel
M: 4/4
K: Gmajor
G3 B d2 Bd|edBG AGED|G3 B dGBd|1 gbaf gedB:|2 gbaf dg g2||
dg g2 bg g2|agbg ageg|dg g2 bg g2|gbag egge|
dg g2 bg g2|agbg ageg|b2 af gfed|(3efg fa gedB||

